public/insta.svg

<svg width="47" height="47" viewBox="0 0 47 47" fill="none" xmlns="http://www.w3.org/2000/svg">
<path d="M23.4469 15.9863C19.215 15.9863 15.7615 19.4399 15.7615 23.6719C15.7615 27.9038 19.215 31.3574 23.4469 31.3574C27.6788 31.3574 31.1324 27.9038 31.1324 23.6719C31.1324 19.4399 27.6788 15.9863 23.4469 15.9863ZM46.4974 23.6719C46.4974 20.4893 46.5263 17.3355 46.3475 14.1586C46.1688 10.4686 45.327 7.19375 42.6288 4.49544C39.9248 1.79137 36.6557 0.955355 32.9658 0.776621C29.7832 0.597887 26.6295 0.626715 23.4527 0.626715C20.2701 0.626715 17.1164 0.597887 13.9396 0.776621C10.2497 0.955355 6.97488 1.79713 4.27662 4.49544C1.5726 7.19951 0.736599 10.4686 0.557868 14.1586C0.379137 17.3412 0.407965 20.495 0.407965 23.6719C0.407965 26.8487 0.379137 30.0083 0.557868 33.1851C0.736599 36.8751 1.57836 40.15 4.27662 42.8483C6.98064 45.5524 10.2497 46.3884 13.9396 46.5671C17.1222 46.7459 20.2759 46.717 23.4527 46.717C26.6353 46.717 29.789 46.7459 32.9658 46.5671C36.6557 46.3884 39.9305 45.5466 42.6288 42.8483C45.3328 40.1442 46.1688 36.8751 46.3475 33.1851C46.532 30.0083 46.4974 26.8545 46.4974 23.6719ZM23.4469 35.4971C16.9031 35.4971 11.6219 30.2158 11.6219 23.6719C11.6219 17.1279 16.9031 11.8466 23.4469 11.8466C29.9908 11.8466 35.272 17.1279 35.272 23.6719C35.272 30.2158 29.9908 35.4971 23.4469 35.4971ZM35.7563 14.124C34.2284 14.124 32.9946 12.8902 32.9946 11.3623C32.9946 9.8344 34.2284 8.60056 35.7563 8.60056C37.2841 8.60056 38.518 9.8344 38.518 11.3623C38.5184 11.7251 38.4473 12.0844 38.3087 12.4197C38.17 12.755 37.9666 13.0596 37.7101 13.3161C37.4536 13.5727 37.1489 13.7761 36.8137 13.9147C36.4784 14.0533 36.1191 14.1245 35.7563 14.124Z" fill="white"/>
</svg>

<svg xmlns="http://www.w3.org/2000/svg" width="47" height="47" fill="none"><path fill="#fff" d="M23.447 15.986c-4.232 0-7.685 3.454-7.685 7.686 0 4.232 3.453 7.685 7.685 7.685 4.232 0 7.685-3.453 7.685-7.685 0-4.232-3.453-7.686-7.685-7.686Zm23.05 7.686c0-3.183.03-6.337-.15-9.513-.178-3.69-1.02-6.965-3.718-9.664-2.704-2.704-5.973-3.54-9.663-3.718-3.183-.18-6.337-.15-9.513-.15-3.183 0-6.337-.03-9.513.15-3.69.178-6.965 1.02-9.663 3.718C1.573 7.2.737 10.47.557 14.16.38 17.34.409 20.495.409 23.672c0 3.177-.029 6.336.15 9.513.179 3.69 1.02 6.965 3.719 9.663 2.704 2.704 5.973 3.54 9.663 3.72 3.182.178 6.336.149 9.513.149 3.182 0 6.336.029 9.513-.15 3.69-.179 6.965-1.02 9.663-3.719 2.704-2.704 3.54-5.973 3.718-9.663.185-3.177.15-6.33.15-9.513Zm-23.05 11.825a11.808 11.808 0 0 1-11.825-11.825 11.808 11.808 0 0 1 11.825-11.825 11.809 11.809 0 0 1 11.825 11.825 11.808 11.808 0 0 1-11.825 11.825Zm12.31-21.373a2.758 2.758 0 0 1-2.762-2.762 2.758 2.758 0 0 1 2.761-2.761 2.758 2.758 0 0 1 2.762 2.761 2.76 2.76 0 0 1-2.762 2.762Z"/></svg>
